app/img/icons/portfolio-icon.svg

<?xml version="1.0" encoding="UTF-8"?>
<svg width="48px" height="40px" viewBox="0 0 48 40" version="1.1" xmlns="http://www.w3.org/2000/svg" xmlns:xlink="http://www.w3.org/1999/xlink">
    <!-- Generator: Sketch 49.3 (51167) - http://www.bohemiancoding.com/sketch -->
    <title>Suitcase</title>
    <desc>Created with Sketch.</desc>
    <defs></defs>
    <g id="Page-1" stroke="none" stroke-width="1" fill="none" fill-rule="evenodd">
        <g id="home-desktop-1440x1024" transform="translate(-1184.000000, -268.000000)">
            <g id="portfolio" transform="translate(1072.000000, 110.000000)">
                <g id="portfolio-icon" transform="translate(100.000000, 158.000000)">
                    <g id="Suitcase" transform="translate(12.000000, 0.000000)">
                        <rect id="Rectangle-234" stroke="#F4F5F6" stroke-width="2" x="1" y="9" width="46" height="30" rx="2"></rect>
                        <rect id="Rectangle-235" fill="#F4F5F6" x="2" y="20" width="17" height="2"></rect>
                        <rect id="Rectangle-238" fill="#F4F5F6" x="29" y="20" width="17" height="2"></rect>
                        <path d="M19.9953976,17 L28.0046024,17 C28.5443356,17 29,17.4463856 29,17.9970301 L29,24.0029699 C29,24.5469637 28.5543453,25 28.0046024,25 L19.9953976,25 C19.4556644,25 19,24.5536144 19,24.0029699 L19,17.9970301 C19,17.4530363 19.4456547,17 19.9953976,17 Z M21.990778,19 C21.4435864,19 21,19.4433532 21,20.0093689 L21,21.9906311 C21,22.5480902 21.4509752,23 21.990778,23 L26.009222,23 C26.5564136,23 27,22.5566468 27,21.9906311 L27,20.0093689 C27,19.4519098 26.5490248,19 26.009222,19 L21.990778,19 Z" id="Rectangle-236-Copy" fill="#F4F5F6"></path>
                        <path d="M33,5 L33,4.00002024 C33,2.34385989 31.6559528,1 30.00077,1 L17.99923,1 C16.3442196,1 15,2.34531667 15,4.00002024 L15,5 L15.100327,5 C15.563951,2.717716 17.5795407,1 19.9962027,1 L28.0037973,1 C30.4206364,1 32.4360976,2.71769586 32.8996829,5 L33,5 Z" id="Rectangle-240-Copy" stroke="#F4F5F6" stroke-width="2"></path>
                    </g>
                </g>
            </g>
        </g>
    </g>
</svg>

<svg width="48" height="40" xmlns="http://www.w3.org/2000/svg"><g fill="none" fill-rule="evenodd"><rect stroke="#F4F5F6" stroke-width="2" x="1" y="9" width="46" height="30" rx="2"/><path fill="#F4F5F6" d="M2 20h17v2H2zM29 20h17v2H29z"/><path d="M19.995 17h8.01c.54 0 .995.446.995.997v6.006a1 1 0 01-.995.997h-8.01c-.54 0-.995-.446-.995-.997v-6.006a1 1 0 01.995-.997zm1.996 2A.995.995 0 0021 20.01v1.98c0 .558.451 1.01.99 1.01h4.02c.546 0 .99-.443.99-1.01v-1.98c0-.558-.451-1.01-.99-1.01h-4.02z" fill="#F4F5F6"/><path d="M33 5V4a3 3 0 00-3-3H18c-1.656 0-3 1.345-3 3v1h.1a5 5 0 014.896-4h8.008A5 5 0 0132.9 5h.1z" stroke="#F4F5F6" stroke-width="2"/></g></svg>
